images/logo-white.svg

<svg height="28" viewBox="0 0 97 28" width="97" xmlns="http://www.w3.org/2000/svg"><g fill="none"><g stroke="#fff" stroke-linejoin="round" transform="translate(1.5 1)"><path d="m17.708 26.29c6.611 0 10.14-4.105 10.14-8.93v-14.163h-4.68v13.834c0 3.058-1.63 5.308-5.46 5.308-3.029 0-5.327-1.376-5.836-4.183h-4.412c.164 5.543 5.126 8.133 10.247 8.133z"/><path d="m11.666 26.29c7.527 0 11.544-4.673 11.544-10.166v-16.124h-5.328v15.749c0 3.482-1.856 6.043-6.216 6.043-3.448 0-6.064-1.566-6.644-4.762h-5.022c.187 6.31 5.836 9.26 11.666 9.26z"/></g><path d="m5.026 23.784v-9.106c.574-1.177 2.36-3.965 6.396-3.965v-3.989c-3.93 0-5.763 3.337-6.396 5.391v-5.002h-4.362v16.671zm16.775-17.06c4.31 0 6.665 2.163 7.57 5.322v-4.933h4.362v16.671h-4.053s-.224-1.677-.29-3.403l-.014-.45c-.003-.15-.005-.299-.005-.446v-1.051c-.924 3.026-3.356 5.727-7.8 5.727-4.987 0-8.917-3.487-8.917-8.69 0-5.265 3.935-8.747 9.147-8.747zm1.174 3.404c-3.732 0-5.865 2.12-5.865 5.343 0 3.213 2.34 5.32 5.865 5.321l.294-.005c3.778-.103 6.102-2.208 6.102-5.316 0-3.428-2.483-5.343-6.396-5.343zm21.035 13.656v-13.054h5.305v-3.303h-5.305v-.692c0-2.29 1.133-2.856 3.125-2.81h2.423v-3.523h-3.471c-4.194 0-6.438 1.782-6.438 5.809v1.216h-3.762v3.303h3.762v13.054zm14.868 0v-13.369h4.293v-3.302h-4.293v-4.572h-4.362v4.572h-4.292v3.302h4.292v13.369z" fill="#fff" transform="translate(32.053 2.776)"/></g></svg>

<svg xmlns="http://www.w3.org/2000/svg" width="97" height="28" viewBox="0 0 97 28">
    <g fill="none">
        <g stroke="#FFF" stroke-linejoin="round">
            <path d="M17.708 26.29c6.611 0 10.14-4.105 10.14-8.93V3.197h-4.68v13.834c0 3.058-1.63 5.308-5.46 5.308-3.029 0-5.327-1.376-5.836-4.183H7.46c.164 5.543 5.126 8.133 10.247 8.133z" transform="translate(1.5 1)"/>
            <path d="M11.666 26.29c7.527 0 11.544-4.673 11.544-10.166V0h-5.328v15.749c0 3.482-1.856 6.043-6.216 6.043-3.448 0-6.064-1.566-6.644-4.762H0c.187 6.31 5.836 9.26 11.666 9.26z" transform="translate(1.5 1)"/>
        </g>
        <g fill="#FFF">
            <path d="M5.026 23.784v-9.106c.574-1.177 2.36-3.965 6.396-3.965V6.724c-3.93 0-5.763 3.337-6.396 5.391V7.113H.664v16.671h4.362zM21.801 6.724c4.31 0 6.665 2.163 7.57 5.322V7.113h4.362v16.671H29.68s-.224-1.677-.29-3.403l-.014-.45c-.003-.15-.005-.299-.005-.446v-1.051c-.924 3.026-3.356 5.727-7.8 5.727-4.987 0-8.917-3.487-8.917-8.69 0-5.265 3.935-8.747 9.147-8.747zm1.174 3.404c-3.732 0-5.865 2.12-5.865 5.343 0 3.213 2.34 5.32 5.865 5.321l.294-.005c3.778-.103 6.102-2.208 6.102-5.316 0-3.428-2.483-5.343-6.396-5.343zM44.01 23.784V10.73h5.305V7.427H44.01v-.692c0-2.29 1.133-2.856 3.125-2.81h2.423V.402h-3.471c-4.194 0-6.438 1.782-6.438 5.809v1.216h-3.762v3.303h3.762v13.054h4.361zM58.878 23.784L58.878 10.415 63.171 10.415 63.171 7.113 58.878 7.113 58.878 2.541 54.516 2.541 54.516 7.113 50.224 7.113 50.224 10.415 54.516 10.415 54.516 23.784z" transform="translate(1.5 1) translate(30.553 1.776)"/>
        </g>
    </g>
</svg>
